icons/scribd-icon.svg

<?xml version="1.0" encoding="UTF-8"?>
<svg width="256px" height="316px" viewBox="0 0 256 316" version="1.1" xmlns="http://www.w3.org/2000/svg" xmlns:xlink="http://www.w3.org/1999/xlink" preserveAspectRatio="xMidYMid">
    <g>
        <path d="M163.431107,153.479627 C172.485437,144.368496 184.994068,139.548656 197.82105,140.228457 C214.067437,139.695192 229.640526,146.73572 239.972393,159.284902 C250.657464,171.989199 256,189.657427 256,212.289585 C256,243.503455 246.177307,267.965537 226.53192,285.675831 C205.91983,303.307828 179.937895,313.429215 152.83017,314.386702 C147.845206,315.082094 142.73404,315.082094 137.433572,315.082094 L136.028007,315.082027 C89.6606652,314.908593 44.9349389,297.795347 10.2854326,266.93489 L10.2854326,266.93489 L0,257.722171 L40.4476214,209.828654 L64.1735272,228.12789 L41.7096377,254.377828 C69.474885,274.991469 103.168536,286.060343 137.749076,285.928235 C179.017008,285.928235 207.601676,270.279233 218.707419,243.019682 C219.339626,240.245696 219.657134,237.409287 219.653931,234.564173 C219.653931,226.487268 216.309588,222.448816 209.620902,222.448816 C206.564981,222.722881 203.542953,223.293473 200.597486,224.152538 C196.88899,225.004515 193.105857,225.490616 189.30244,225.603857 C179.463856,225.40783 170.072601,221.457182 163.052502,214.561215 C154.812463,207.007376 150.331758,196.198252 150.810944,185.030034 C150.642173,173.251123 155.185506,161.89279 163.431107,153.479627 Z M123.172788,0.0184491647 C163.867948,-0.62742691 203.501475,13.0154377 235.176732,38.5730462 L235.176732,38.5730462 L246.030071,47.091656 L212.334237,95.1744758 L187.472517,78.7682643 L205.393148,53.0231324 C181.061705,37.0226292 152.479514,28.7118075 123.36209,29.171025 C108.941742,28.9336847 94.6364772,31.7732259 81.4000493,37.5003323 C77.1611382,39.6761516 73.0903672,42.1650167 69.2215923,44.9462283 C55.675951,54.7058208 48.9031304,66.3794713 48.9031304,79.9671798 C48.9031304,88.0440839 52.2474735,92.0825359 58.9361597,92.0825359 C61.9920264,91.8080768 65.0140163,91.2374913 67.959576,90.378814 C71.6683559,89.5284309 75.4513326,89.0423501 79.2546216,88.9274953 C88.9487159,89.1350762 98.2086607,92.9877539 105.189056,99.7177344 C113.457833,107.326442 117.919604,118.215014 117.367513,129.438217 C117.536284,141.217129 112.992951,152.575461 104.74735,160.988624 C95.6930204,170.099756 83.1843894,174.919595 70.357407,174.239795 C54.1323735,174.803825 38.5630847,167.811629 28.2060636,155.309551 C17.4789253,142.626287 11.7367513,124.705656 11.6736505,102.052464 L11.6736505,102.052464 L11.6736505,97.9509116 C11.6736505,40.2767681 57.5479418,0.0184491647 123.172788,0.0184491647 Z" fill="#1E7B85"></path>
    </g>
</svg>

<svg xmlns="http://www.w3.org/2000/svg" viewBox="0 0 256 315.086">
  <path fill="#1e7b85" d="M163.431 153.483a45.117 45.117 0 0 1 34.39-13.251 52.374 52.374 0 0 1 42.151 19.056C250.657 171.993 256 189.661 256 212.293c0 31.214-9.823 55.676-29.468 73.386a119.892 119.892 0 0 1-73.702 28.711c-4.985.696-10.096.696-15.396.696h-1.406a190.13 190.13 0 0 1-125.743-48.148L0 257.726l40.448-47.894 23.726 18.3-22.464 26.25a160.087 160.087 0 0 0 96.04 31.55c41.267 0 69.852-15.65 80.957-42.909.633-2.774.95-5.61.947-8.455 0-8.077-3.344-12.116-10.033-12.116a47.325 47.325 0 0 0-9.024 1.704 58.18 58.18 0 0 1-11.295 1.451 38.555 38.555 0 0 1-26.25-11.042 37.86 37.86 0 0 1-12.241-29.531 44.17 44.17 0 0 1 12.62-31.55zM123.173.022a173.969 173.969 0 0 1 112.004 38.555l10.853 8.518-33.696 48.083-24.861-16.406 17.92-25.745a145.132 145.132 0 0 0-82.03-23.853 101.466 101.466 0 0 0-41.963 8.33 95.85 95.85 0 0 0-12.178 7.446c-13.546 9.76-20.319 21.433-20.319 35.02 0 8.078 3.344 12.116 10.033 12.116a47.389 47.389 0 0 0 9.024-1.704 58.431 58.431 0 0 1 11.295-1.451 38.555 38.555 0 0 1 25.934 10.79 37.86 37.86 0 0 1 12.179 29.72 44.17 44.17 0 0 1-12.62 31.551 45.117 45.117 0 0 1-34.39 13.251 52.374 52.374 0 0 1-42.152-18.93c-10.727-12.683-16.47-30.604-16.532-53.257v-4.102C11.674 40.28 57.548.022 123.173.022z"/>
</svg>
